static/card-icons/graduation-cap.svg

<svg height="682.66669" viewBox="0 0 682.66669 682.66669" width="682.66669" xmlns="http://www.w3.org/2000/svg"><g style="fill:none;stroke:#000;stroke-width:30;stroke-linecap:round;stroke-linejoin:round;stroke-miterlimit:10"><path d="m0 0-241 80.333 241 80.333 241-80.333z" transform="matrix(1.3333333 0 0 -1.3333333 341.3333248 277.06641347334)"/><path d="m0 0v-144.601c79.872-79.861 209.349-79.861 289.2 0v144.601l-144.6-48.2z" transform="matrix(1.3333333 0 0 -1.3333333 148.53319628667 212.79948174668)"/><path d="m0 0v-209.937" transform="matrix(1.3333333 0 0 -1.3333333 619.82225117111 189.95054898457)"/><path d="m0 0c0 17.747-14.38 32.133-32.133 32.133-17.734 0-32.134-14.386-32.134-32.133v-80.333h64.267z" transform="matrix(1.3333333 0 0 -1.3333333 662.6666501 512.71094091556)"/></g></svg>

<?xml version="1.0" encoding="UTF-8" standalone="no"?>
<!-- Created with Inkscape (http://www.inkscape.org/) -->

<svg
   version="1.1"
   id="svg2811"
   xml:space="preserve"
   width="682.66669"
   height="682.66669"
   viewBox="0 0 682.66669 682.66669"
   xmlns="http://www.w3.org/2000/svg"
   xmlns:svg="http://www.w3.org/2000/svg"><defs
     id="defs2815"><clipPath
       clipPathUnits="userSpaceOnUse"
       id="clipPath2825"><path
         d="M 0,512 H 512 V 0 H 0 Z"
         id="path2823" /></clipPath></defs><g
     id="g2817"
     transform="matrix(1.3333333,0,0,-1.3333333,0,682.66667)"><g
       id="g2819"><g
         id="g2821"
         clipPath="url(#clipPath2825)"><g
           id="g2827"
           transform="translate(256,304.2002)"><path
             d="M 0,0 -241,80.333 0,160.666 241,80.333 Z"
             style="fill:none;stroke:#000000;stroke-width:30;stroke-linecap:round;stroke-linejoin:round;stroke-miterlimit:10;stroke-dasharray:none;stroke-opacity:1"
             id="path2829" /></g><g
           id="g2831"
           transform="translate(111.3999,352.4004)"><path
             d="m 0,0 v -144.601 c 79.872,-79.861 209.349,-79.861 289.2,0 V 0 L 144.6,-48.2 Z"
             style="fill:none;stroke:#000000;stroke-width:30;stroke-linecap:round;stroke-linejoin:round;stroke-miterlimit:10;stroke-dasharray:none;stroke-opacity:1"
             id="path2833" /></g><g
           id="g2835"
           transform="translate(464.8667,369.5371)"><path
             d="M 0,0 V -209.937"
             style="fill:none;stroke:#000000;stroke-width:30;stroke-linecap:round;stroke-linejoin:round;stroke-miterlimit:10;stroke-dasharray:none;stroke-opacity:1"
             id="path2837" /></g><g
           id="g2839"
           transform="translate(497,127.4668)"><path
             d="M 0,0 C 0,17.747 -14.38,32.133 -32.133,32.133 -49.867,32.133 -64.267,17.747 -64.267,0 V -80.333 H 0 Z"
             style="fill:none;stroke:#000000;stroke-width:30;stroke-linecap:round;stroke-linejoin:round;stroke-miterlimit:10;stroke-dasharray:none;stroke-opacity:1"
             id="path2841" /></g></g></g></g></svg>
